public/images/mongo-gray.svg

<svg width="46" height="101" viewBox="0 0 46 101" fill="none" xmlns="http://www.w3.org/2000/svg">
<g id="Asset 6" clip-path="url(#clip0_304_8146)">
<g id="Group">
<path id="Vector" d="M23.0706 1.16121L25.7306 6.16121C26.3052 7.06422 26.9757 7.90243 27.7306 8.66121C29.9742 10.8777 32.0656 13.2431 33.9906 15.7412C38.3904 21.6586 41.6927 28.3174 43.7406 35.4012C45.0546 39.7318 45.7514 44.226 45.8106 48.7512C46.0167 55.1756 44.9047 61.5741 42.5434 67.5523C40.182 73.5305 36.6213 78.9617 32.0806 83.5112C30.5594 85.0408 28.9174 86.4454 27.1706 87.7112C26.2506 87.7112 25.8106 87.0012 25.4306 86.3412C24.7362 85.131 24.2749 83.8014 24.0706 82.4212C23.6997 80.7819 23.5517 79.1001 23.6306 77.4212V76.6512C23.5606 76.4912 22.7406 1.50121 23.0706 1.11121V1.16121Z" fill="#797979"/>
<path id="Vector_2" d="M23.0706 1.00117C22.9606 0.781169 22.8506 0.941169 22.7406 1.05117C22.7609 2.1251 22.4348 3.17702 21.8106 4.05117C21.112 4.94315 20.3097 5.74882 19.4206 6.45117C14.6356 10.6646 10.6663 15.722 7.71062 21.3712C3.73689 28.9287 1.42199 37.2473 0.920617 45.7712C0.650617 48.8712 1.92062 59.7712 2.92062 62.9812C5.62816 71.1714 10.3251 78.5621 16.5906 84.4912C18.1248 85.9611 19.7407 87.3433 21.4306 88.6312C21.9206 88.6312 21.9706 88.2012 22.0906 87.8712C22.3045 87.1771 22.4682 86.4687 22.5806 85.7512L23.6706 77.5812L23.0706 1.00117Z" fill="#8E8E8E"/>
<path id="Vector_3" d="M25.7306 91.0311C25.9081 89.8258 26.3785 88.6824 27.1006 87.7011C26.4566 87.4014 25.9218 86.9086 25.5706 86.2911C25.2402 85.7202 24.9688 85.1171 24.7606 84.4911C24.1123 82.2095 23.7298 79.8606 23.6206 77.4911V76.0511C23.3406 76.2711 23.2906 78.1211 23.2906 78.3911C23.1231 80.8642 22.789 83.3231 22.2906 85.7511C22.2126 86.7484 21.9118 87.7155 21.4106 88.5811C21.3892 88.7069 21.3892 88.8354 21.4106 88.9611C22.3197 91.8171 22.8279 94.7854 22.9206 97.7811V98.8911C22.9206 100.191 22.8706 99.8911 23.9206 100.361C24.4007 100.465 24.8603 100.647 25.2806 100.901C25.6106 100.901 25.6606 100.631 25.6606 100.411L25.5006 98.6111V93.6111C25.4922 92.7528 25.5659 91.8955 25.7206 91.0511L25.7306 91.0311Z" fill="#C0C0C0"/>
</g>
</g>
<defs>
<clipPath id="clip0_304_8146">
<rect width="44.92" height="100" fill="white" transform="translate(0.920616 0.891113)"/>
</clipPath>
</defs>
</svg>

<svg xmlns="http://www.w3.org/2000/svg" width="46" height="101" fill="none"><g clip-path="url(#a)"><path fill="#797979" d="m23.07 1.161 2.66 5a14.841 14.841 0 0 0 2 2.5 70.094 70.094 0 0 1 6.26 7.08 61.64 61.64 0 0 1 9.75 19.66 48.148 48.148 0 0 1 2.07 13.35 47.07 47.07 0 0 1-13.73 34.76 40.156 40.156 0 0 1-4.91 4.2c-.92 0-1.36-.71-1.74-1.37a11.16 11.16 0 0 1-1.36-3.92 18.683 18.683 0 0 1-.44-5v-.77c-.07-.16-.89-75.15-.56-75.54v.05Z"/><path fill="#8E8E8E" d="M23.07 1.001c-.11-.22-.22-.06-.33.05a5 5 0 0 1-.93 3c-.698.892-1.5 1.698-2.39 2.4a52 52 0 0 0-11.71 14.92 60 60 0 0 0-6.79 24.4c-.27 3.1 1 14 2 17.21a52.15 52.15 0 0 0 13.67 21.51 56.5 56.5 0 0 0 4.84 4.14c.49 0 .54-.43.66-.76a15.17 15.17 0 0 0 .49-2.12l1.09-8.17-.6-76.58Z"/><path fill="silver" d="M25.73 91.031a7.45 7.45 0 0 1 1.37-3.33 3.42 3.42 0 0 1-1.53-1.41 9.713 9.713 0 0 1-.81-1.8 30.798 30.798 0 0 1-1.14-7v-1.44c-.28.22-.33 2.07-.33 2.34a55.129 55.129 0 0 1-1 7.36 6.689 6.689 0 0 1-.88 2.83 1.133 1.133 0 0 0 0 .38 32.38 32.38 0 0 1 1.51 8.82v1.11c0 1.3-.05 1 1 1.47.48.104.94.286 1.36.54.33 0 .38-.27.38-.49l-.16-1.8v-5c-.008-.858.066-1.716.22-2.56l.01-.02Z"/></g><defs><clipPath id="a"><path fill="#fff" d="M.92.891h44.92v100H.92z"/></clipPath></defs></svg>
